!!!COM:	Rachmaninoff, Sergei
!!!CDT:	1873/04/01–1943/03/28
!!!OTL@RU:	Blagoslovi, dushe moya, Gospoda
!!!OTL@EN:	Praise the Lord, O My Soul
!!!OPS:	Op. 37
!!!ONM:	No. 2
**kern	**kern	**kern	**kern	**kern	**kern	**kern	**kern	**kern
*part9	*part8	*part7	*part6	*part5	*part4	*part3	*part2	*part1
*staff9	*staff8	*staff7	*staff6	*staff5	*staff4	*staff3	*staff2	*staff1
*I"Bass 2	*I"Bass 1	*I"Tenor 2	*I"Tenor 1	*I"Alto Solo	*I"Alto 2	*I"Alto 1	*I"Soprano 2	*I"Soprano 1
*I'B 2	*I'B 1	*I'T 2	*I'T 1	*I'A	*I'A 2	*I'A 1	*I'S 2	*I'S 1
*clefF4	*clefF4	*clefGv2	*clefGv2	*clefG2	*clefG2	*clefG2	*clefG2	*clefG2
*k[]	*k[]	*k[]	*k[]	*k[]	*k[]	*k[]	*k[]	*k[]
*C:	*C:	*C:	*C:	*C:	*C:	*C:	*C:	*C:
*M2/4	*M2/4	*M2/4	*M2/4	*M2/4	*M2/4	*M2/4	*M2/4	*M2/4
=1	=1	=1	=1	=1	=1	=1	=1	=1
2C	2C	2G	2G	2r	2e	2e	2cc	2cc
=2	=2	=2	=2	=2	=2	=2	=2	=2
*M4/4	*M4/4	*M4/4	*M4/4	*M4/4	*M4/4	*M4/4	*M4/4	*M4/4
1C;	1C;	1G;	1G;	1r	1e;	1e;	1cc;	1cc;
=3||	=3||	=3||	=3||	=3||	=3||	=3||	=3||	=3||
*M4/2	*M4/2	*M4/2	*M4/2	*M4/2	*M4/2	*M4/2	*M4/2	*M4/2
2r	2r	2r	2r	0r	0r	0r	0r	0r
2AA	2E	2E	2c	.	.	.	.	.
2AA	2E	2E	2c	.	.	.	.	.
2GG	2D	4F	2c	.	.	.	.	.
.	.	4G	.	.	.	.	.	.
=4	=4	=4	=4	=4	=4	=4	=4	=4
*M9/4	*M9/4	*M9/4	*M9/4	*M9/4	*M9/4	*M9/4	*M9/4	*M9/4
[1FF	[1C	[1A	[1c	4r	4%9r	4%9r	4%9r	4%9r
.	.	.	.	4c	.	.	.	.
.	.	.	.	4c	.	.	.	.
.	.	.	.	4d	.	.	.	.
1FF_	1C_	1A_	1c_	4e	.	.	.	.
.	.	.	.	4e	.	.	.	.
.	.	.	.	8fL	.	.	.	.
.	.	.	.	8eJ	.	.	.	.
.	.	.	.	4d	.	.	.	.
4FF]	4C_	4A]	4c_	8cL	.	.	.	.
.	.	.	.	8dJ	.	.	.	.
=5	=5	=5	=5	=5	=5	=5	=5	=5
*M4/2	*M4/2	*M4/2	*M4/2	*M4/2	*M4/2	*M4/2	*M4/2	*M4/2
[1CC	1C_	2G	1c_	4.e	0r	0r	0r	0r
.	.	.	.	8f	.	.	.	.
.	.	2A	.	4g	.	.	.	.
.	.	.	.	4f	.	.	.	.
2CC]	2C]	2G	2c]	4.e	.	.	.	.
.	.	.	.	8c	.	.	.	.
2GG	2F	2B	2B	4d	.	.	.	.
.	.	.	.	4d	.	.	.	.
=6	=6	=6	=6	=6	=6	=6	=6	=6
!!pagebreak:original
[1AA	1E	1A	4A	0c	[0c	0r	0r	0r
.	.	.	4r	.	.	.	.	.
.	.	.	2r	.	.	.	.	.
2AA]	2D	2F	2r	.	.	.	.	.
2GG	2E	2G	8r	.	.	.	.	.
.	.	.	8c	.	.	.	.	.
.	.	.	8c	.	.	.	.	.
.	.	.	8c	.	.	.	.	.
=7	=7	=7	=7	=7	=7	=7	=7	=7
2C	2F	2A	4.f	0r	0c_	2a	2cc	2cc
.	.	.	8e	.	.	.	.	.
2r	2r	2r	2f	.	.	4a	4cc	4cc
.	.	.	.	.	.	4a	4cc	4cc
1r	1r	1r	4.e	.	.	2a	4cc	4cc
.	.	.	.	.	.	.	8bL	8bL
.	.	.	8f	.	.	.	8aJ	8aJ
.	.	.	4d	.	.	2f	2b	2b
.	.	.	8cL	.	.	.	.	.
.	.	.	8BJ	.	.	.	.	.
=8	=8	=8	=8	=8	=8	=8	=8	=8
0r	0r	0r	4.c	0r	0c_	2e	4.a	4.a
.	.	.	8d	.	.	.	8b	8b
.	.	.	4e	.	.	4a	4cc	4cc
.	.	.	4f	.	.	4a	4dd	4dd
.	.	.	4.e	.	.	2a	4cc	4cc
.	.	.	.	.	.	.	8bL	8bL
.	.	.	8c	.	.	.	8aJ	8aJ
.	.	.	4d	.	.	4f	8bL	8bL
.	.	.	.	.	.	.	8aJ	8aJ
.	.	.	4d	.	.	4f	4b	4b
=9	=9	=9	=9	=9	=9	=9	=9	=9
!!pagebreak:original
0r	0r	0r	[1c	1r	2c]	[1e	[1cc	[1cc
.	.	.	.	.	2r	.	.	.
.	.	.	2c]	2a	1r	2e]	2cc]	2cc]
.	.	.	2r	4g	.	2r	2r	2r
.	.	.	.	8fL	.	.	.	.
.	.	.	.	8eJ	.	.	.	.
=10	=10	=10	=10	=10	=10	=10	=10	=10
*M3/2	*M3/2	*M3/2	*M3/2	*M3/2	*M3/2	*M3/2	*M3/2	*M3/2
1AA	1E	1c	1.r	4g	1.r	1.r	1.r	1.r
.	.	.	.	4f	.	.	.	.
.	.	.	.	2e	.	.	.	.
2GG	2D	2B	.	4e	.	.	.	.
.	.	.	.	4f	.	.	.	.
=11	=11	=11	=11	=11	=11	=11	=11	=11
*M4/2	*M4/2	*M4/2	*M4/2	*M4/2	*M4/2	*M4/2	*M4/2	*M4/2
2FF	2C	2A	0r	4.e	0r	0r	0r	0r
.	.	.	.	8d	.	.	.	.
[1.EE	[1.C	1.G	.	4.c	.	.	.	.
.	.	.	.	8d	.	.	.	.
.	.	.	.	8eL	.	.	.	.
.	.	.	.	8fJ	.	.	.	.
.	.	.	.	4g	.	.	.	.
.	.	.	.	4a	.	.	.	.
.	.	.	.	4g	.	.	.	.
=12	=12	=12	=12	=12	=12	=12	=12	=12
!!pagebreak:original
*M3/2	*M3/2	*M3/2	*M3/2	*M3/2	*M3/2	*M3/2	*M3/2	*M3/2
2FF	4C]	2A	1.r	4g	1.r	1.r	1.r	1.r
.	4D	.	.	4f	.	.	.	.
1GG	2E	2B	.	4.e	.	.	.	.
.	.	.	.	8c	.	.	.	.
.	2F	2A	.	4d	.	.	.	.
.	.	.	.	4c	.	.	.	.
=13	=13	=13	=13	=13	=13	=13	=13	=13
*M4/2	*M4/2	*M4/2	*M4/2	*M4/2	*M4/2	*M4/2	*M4/2	*M4/2
1.AA	1E	2.A	1r	0c	[0c	0r	0r	0r
.	.	4G	.	.	.	.	.	.
.	2D	2F	2r	.	.	.	.	.
2GG	2G	4E	8r	.	.	.	.	.
.	.	.	8c	.	.	.	.	.
.	.	4D	8c	.	.	.	.	.
.	.	.	8c	.	.	.	.	.
=14	=14	=14	=14	=14	=14	=14	=14	=14
2FF	2A	2C	4.f	0r	0c_	2a	2cc	2cc
.	.	.	8e	.	.	.	.	.
2r	2r	2r	2f	.	.	4a	4cc	4cc
.	.	.	.	.	.	4a	4cc	4cc
1r	1r	1r	4.e	.	.	2a	4cc	4cc
.	.	.	.	.	.	.	8bL	8bL
.	.	.	8f	.	.	.	8aJ	8aJ
.	.	.	4d	.	.	2f	4b	4b
.	.	.	8cL	.	.	.	4a	4a
.	.	.	8BJ	.	.	.	.	.
=15	=15	=15	=15	=15	=15	=15	=15	=15
!!pagebreak:original
0r	0r	0r	4.c	0r	0c_	2e	4.a	4.a
.	.	.	8d	.	.	.	8b	8b
.	.	.	4e	.	.	4a	8ccL	8ccL
.	.	.	.	.	.	.	8eeJ	8eeJ
.	.	.	4f	.	.	4a	4dd	4dd
.	.	.	4.e	.	.	2a	4cc	4cc
.	.	.	.	.	.	.	8bL	8bL
.	.	.	8c	.	.	.	8aJ	8aJ
.	.	.	4d	.	.	4f	8bL	8bL
.	.	.	.	.	.	.	8aJ	8aJ
.	.	.	4d	.	.	4f	4b	4b
=16	=16	=16	=16	=16	=16	=16	=16	=16
*M2/2	*M2/2	*M2/2	*M2/2	*M2/2	*M2/2	*M2/2	*M2/2	*M2/2
1r	1r	1r	1c	4r	4c]	1e	1cc	1cc
.	.	.	.	4c	4r	.	.	.
.	.	.	.	4c	2r	.	.	.
.	.	.	.	4c	.	.	.	.
=17	=17	=17	=17	=17	=17	=17	=17	=17
*M4/2	*M4/2	*M4/2	*M4/2	*M4/2	*M4/2	*M4/2	*M4/2	*M4/2
1FF	1D	1A	0r	4.d	0r	0r	0r	0r
.	.	.	.	8e	.	.	.	.
.	.	.	.	2d	.	.	.	.
2FF	2D	2A	.	4d	.	.	.	.
.	.	.	.	8eL	.	.	.	.
.	.	.	.	8dJ	.	.	.	.
2AA	2E	2A	.	2c	.	.	.	.
=18	=18	=18	=18	=18	=18	=18	=18	=18
!!pagebreak:original
*M9/4	*M9/4	*M9/4	*M9/4	*M9/4	*M9/4	*M9/4	*M9/4	*M9/4
[2.AA	[2.E	2A	4%9r	4c	4%9r	4%9r	4%9r	4%9r
.	.	.	.	4c	.	.	.	.
.	.	4B	.	4d	.	.	.	.
2.AA]	4E]	2.c	.	2e	.	.	.	.
.	4E	.	.	.	.	.	.	.
.	4F	.	.	4f	.	.	.	.
4BB	4G	4d	.	4e	.	.	.	.
4C	2G	2c	.	2e	.	.	.	.
4D	.	.	.	.	.	.	.	.
=19	=19	=19	=19	=19	=19	=19	=19	=19
*M4/2	*M4/2	*M4/2	*M4/2	*M4/2	*M4/2	*M4/2	*M4/2	*M4/2
4.E	[1G	4.c	0r	8c	0r	0r	0r	0r
.	.	.	.	4e	.	.	.	.
8D	.	8d	.	8f	.	.	.	.
4C	.	4e	.	4g	.	.	.	.
4GG	.	4d	.	4f	.	.	.	.
8AAL	4G]	2c	.	4.e	.	.	.	.
8GG	.	.	.	.	.	.	.	.
8FF	2A	.	.	.	.	.	.	.
8EEJ	.	.	.	8c	.	.	.	.
4FF	.	2d	.	4d	.	.	.	.
4GG	4F	.	.	8cL	.	.	.	.
.	.	.	.	8BJ	.	.	.	.
=20	=20	=20	=20	=20	=20	=20	=20	=20
[1AA	1E	2c	[0c	0c	0r	0r	0r	1r
.	.	2E	.	.	.	.	.	.
2AA]	1D	2F	.	.	.	.	.	2r
2GG	.	2G	.	.	.	.	.	8r
.	.	.	.	.	.	.	.	8ccL
.	.	.	.	.	.	.	.	8cc
.	.	.	.	.	.	.	.	8ccJ
=21	=21	=21	=21	=21	=21	=21	=21	=21
!!pagebreak:original
2FF	2C	2A	0c_	0r	2a	4.a	2cc	4.ff
.	.	.	.	.	.	8g	.	8ee
2r	2r	2r	.	.	4a	4a	4cc	2ff
.	.	.	.	.	4a	8fL	4cc	.
.	.	.	.	.	.	8gJ	.	.
1r	1r	1r	.	.	2a	4a	2cc	4.ee
.	.	.	.	.	.	4e	.	.
.	.	.	.	.	.	.	.	8ff
.	.	.	.	.	2f	8fL	4.a	4dd
.	.	.	.	.	.	8eJ	.	.
.	.	.	.	.	.	4d	.	8ccL
.	.	.	.	.	.	.	8b	8bJ
=22	=22	=22	=22	=22	=22	=22	=22	=22
0r	0r	0r	0c_	0r	2a	4.e	4.cc	4.cc
.	.	.	.	.	.	8f	8dd	8dd
.	.	.	.	.	4a	4e	4ee	4ee
.	.	.	.	.	4a	4cc	4ff	4ff
.	.	.	.	.	4g	4b	4.ee	4.ee
.	.	.	.	.	4e	4g	.	.
.	.	.	.	.	.	.	8cc	8cc
.	.	.	.	.	8fL	8aL	4dd	4dd
.	.	.	.	.	8eJ	8gJ	.	.
.	.	.	.	.	4d	4f	4cc	4cc
=23	=23	=23	=23	=23	=23	=23	=23	=23
*M2/2	*M2/2	*M2/2	*M2/2	*M2/2	*M2/2	*M2/2	*M2/2	*M2/2
1r	1r	1r	4c]	2r	1c	1e	1cc	1cc
.	.	.	4r	.	.	.	.	.
.	.	.	2r	4c	.	.	.	.
.	.	.	.	4c	.	.	.	.
=24	=24	=24	=24	=24	=24	=24	=24	=24
!!pagebreak:original
*M4/2	*M4/2	*M4/2	*M4/2	*M4/2	*M4/2	*M4/2	*M4/2	*M4/2
1DD	1AA	1F	0r	4.d	0r	0r	0r	0r
.	.	.	.	8e	.	.	.	.
.	.	.	.	4d	.	.	.	.
.	.	.	.	8eL	.	.	.	.
.	.	.	.	8dJ	.	.	.	.
1EE	1C	1G	.	2c	.	.	.	.
.	.	.	.	4c	.	.	.	.
.	.	.	.	4d	.	.	.	.
=25	=25	=25	=25	=25	=25	=25	=25	=25
1FF	2C	2.A	0r	2e	0r	0r	0r	0r
.	2D	.	.	4f	.	.	.	.
.	.	4B	.	4e	.	.	.	.
1AA	2E	[1c	.	1e	.	.	.	.
.	4F	.	.	.	.	.	.	.
.	4G	.	.	.	.	.	.	.
=26	=26	=26	=26	=26	=26	=26	=26	=26
[0GG	2E	0c_	0r	4.e	0r	0r	0r	0r
.	.	.	.	8f	.	.	.	.
.	2A	.	.	4g	.	.	.	.
.	.	.	.	4f	.	.	.	.
.	2G	.	.	4.e	.	.	.	.
.	.	.	.	8c	.	.	.	.
.	2F	.	.	4d	.	.	.	.
.	.	.	.	8cL	.	.	.	.
.	.	.	.	8BJ	.	.	.	.
=27	=27	=27	=27	=27	=27	=27	=27	=27
0GG]	2E	2c]	0r	0c	[0c	0r	0r	0r
.	2F	2A	.	.	.	.	.	.
.	2E	2G	.	.	.	.	.	.
.	2D	4F	.	.	.	.	.	.
.	.	4G	.	.	.	.	.	.
=28	=28	=28	=28	=28	=28	=28	=28	=28
!!pagebreak:original
2C	2F	2A	4.f	0r	0c_	2a	2cc	2cc
.	.	.	8e	.	.	.	.	.
2r	2r	2r	2f	.	.	4a	4cc	4cc
.	.	.	.	.	.	4a	4cc	4cc
1r	1r	1r	4e	.	.	2a	4cc	4cc
.	.	.	8eL	.	.	.	4a	4a
.	.	.	8fJ	.	.	.	.	.
.	.	.	4d	.	.	2f	4b	4b
.	.	.	8cL	.	.	.	4cc	4cc
.	.	.	8BJ	.	.	.	.	.
=29	=29	=29	=29	=29	=29	=29	=29	=29
0r	0r	0r	4.c	0r	0c_	2e	4.a	4.a
.	.	.	8d	.	.	.	8b	8b
.	.	.	4e	.	.	4a	8ccL	8ccL
.	.	.	.	.	.	.	8eeJ	8eeJ
.	.	.	4f	.	.	4a	4dd	4dd
.	.	.	4.e	.	.	2a	4cc	4cc
.	.	.	.	.	.	.	8bL	8bL
.	.	.	8c	.	.	.	8aJ	8aJ
.	.	.	4d	.	.	4f	8bL	8bL
.	.	.	.	.	.	.	8aJ	8aJ
.	.	.	4d	.	.	4f	4b	4b
=30	=30	=30	=30	=30	=30	=30	=30	=30
*M2/2	*M2/2	*M2/2	*M2/2	*M2/2	*M2/2	*M2/2	*M2/2	*M2/2
1r	1r	1r	1c	2r	4c]	1e	1cc	1cc
.	.	.	.	.	4r	.	.	.
.	.	.	.	4c	2r	.	.	.
.	.	.	.	4c	.	.	.	.
=31	=31	=31	=31	=31	=31	=31	=31	=31
!!pagebreak:original
*M4/2	*M4/2	*M4/2	*M4/2	*M4/2	*M4/2	*M4/2	*M4/2	*M4/2
2FF	2C	2A	0r	4.d	0r	0r	0r	0r
.	.	.	.	8e	.	.	.	.
2EE	2BB	2G	.	4d	.	.	.	.
.	.	.	.	8eL	.	.	.	.
.	.	.	.	8dJ	.	.	.	.
2DD	2AA	2F	.	2c	.	.	.	.
2EE	2C	2G	.	4c	.	.	.	.
.	.	.	.	4d	.	.	.	.
=32	=32	=32	=32	=32	=32	=32	=32	=32
[1FF	[1C	[1A	4r	2e	0r	0r	0r	0r
.	.	.	4C	.	.	.	.	.
.	.	.	4D	4f	.	.	.	.
.	.	.	4E	4e	.	.	.	.
1FF]	4C]	4A]	4F	1e	.	.	.	.
.	4BB	4G	4G	.	.	.	.	.
.	4C	4A	4A	.	.	.	.	.
.	4D	4B	4B	.	.	.	.	.
=33	=33	=33	=33	=33	=33	=33	=33	=33
2AA	1E	[0c	4c	4.e	0r	0r	0r	0r
.	.	.	8BL	.	.	.	.	.
.	.	.	8AJ	8f	.	.	.	.
2GG	.	.	4B	4g	.	.	.	.
.	.	.	8AL	4f	.	.	.	.
.	.	.	8GJ	.	.	.	.	.
4.FF	2C	.	4A	4.e	.	.	.	.
.	.	.	8GL	.	.	.	.	.
8AA	.	.	8FJ	8c	.	.	.	.
2GG	4D	.	8GL	4d	.	.	.	.
.	.	.	8F	.	.	.	.	.
.	8CL	.	8E	4c	.	.	.	.
.	8DJ	.	8FJ	.	.	.	.	.
=34	=34	=34	=34	=34	=34	=34	=34	=34
!!pagebreak:original
*M2/2	*M2/2	*M2/2	*M2/2	*M2/2	*M2/2	*M2/2	*M2/2	*M2/2
2.AA	4C	1c_	4E	1c	1r	1r	1r	1r
.	4D	.	4F	.	.	.	.	.
.	4E	.	4G	.	.	.	.	.
4GG	8DL	.	8FL	.	.	.	.	.
.	8EJ	.	8GJ	.	.	.	.	.
=35	=35	=35	=35	=35	=35	=35	=35	=35
*M4/2	*M4/2	*M4/2	*M4/2	*M4/2	*M4/2	*M4/2	*M4/2	*M4/2
2C	2F	2c]	2A	0r	[0c	4.a	[2cc	4.ff
.	.	.	.	.	.	8g	.	8ee
2r	2r	2r	2r	.	.	4a	4cc]	2ff
.	.	.	.	.	.	4f	4a	.
1r	1r	1r	1r	.	.	4a	4cc	4ee
.	.	.	.	.	.	4e	4a	8eeL
.	.	.	.	.	.	.	.	8ffJ
.	.	.	.	.	.	8fL	4a	4dd
.	.	.	.	.	.	8eJ	.	.
.	.	.	.	.	.	4d	4f	8ccL
.	.	.	.	.	.	.	.	8bJ
=36	=36	=36	=36	=36	=36	=36	=36	=36
0r	0r	0r	0r	0r	0c_	4.e	2a	4.cc
.	.	.	.	.	.	8f	.	8dd
.	.	.	.	.	.	4e	4a	4ee
.	.	.	.	.	.	8fL	8aL	4ff
.	.	.	.	.	.	8gJ	8bJ	.
.	.	.	.	.	.	4a	4cc	4.ee
.	.	.	.	.	.	4e	[4a	.
.	.	.	.	.	.	.	.	8cc
.	.	.	.	.	.	8fL	8aL]	4dd
.	.	.	.	.	.	8eJ	8gJ	.
.	.	.	.	.	.	4d	4f	4cc
=37	=37	=37	=37	=37	=37	=37	=37	=37
!!pagebreak:original
*M2/2	*M2/2	*M2/2	*M2/2	*M2/2	*M2/2	*M2/2	*M2/2	*M2/2
1r	1r	1r	1r	2r	4c]	1c	1e	1cc
.	.	.	.	.	4r	.	.	.
.	.	.	.	4c	2r	.	.	.
.	.	.	.	4c	.	.	.	.
=38	=38	=38	=38	=38	=38	=38	=38	=38
*M4/2	*M4/2	*M4/2	*M4/2	*M4/2	*M4/2	*M4/2	*M4/2	*M4/2
2GG	1D	2B-X	0r	4.d	0r	0r	0r	0r
.	.	.	.	8e	.	.	.	.
4FF	.	4A	.	4d	.	.	.	.
4EE	.	4G#X	.	8dL	.	.	.	.
.	.	.	.	8eJ	.	.	.	.
1AA	1E	2.A	.	2c	.	.	.	.
.	.	.	.	4c	.	.	.	.
.	.	4Bn	.	4d	.	.	.	.
=39	=39	=39	=39	=39	=39	=39	=39	=39
2.AA	2E	2.c	0r	2e	0r	0r	0r	0r
.	4F	.	.	4f	.	.	.	.
4BB	4G	4d	.	4e	.	.	.	.
4C	2.G	[1c	.	[2e	.	.	.	.
4D	.	.	.	.	.	.	.	.
4E	.	.	.	4e]	.	.	.	.
4D	4F	.	.	8c	.	.	.	.
.	.	.	.	8d	.	.	.	.
=40	=40	=40	=40	=40	=40	=40	=40	=40
!!pagebreak:original
4.C	[1G	4.c]	0r	4.e	0r	0r	0r	0r
8BB	.	8d	.	8f	.	.	.	.
4AA	.	4e	.	4g	.	.	.	.
4BB	.	4d	.	4f	.	.	.	.
4C	2G]	2.c	.	4.e	.	.	.	.
8BBL	.	.	.	.	.	.	.	.
8AAJ	.	.	.	8c	.	.	.	.
8GGL	2F	.	.	4d	.	.	.	.
8FF	.	.	.	.	.	.	.	.
8EE	.	4A	.	4c	.	.	.	.
8DDJ	.	.	.	.	.	.	.	.
=41	=41	=41	=41	=41	=41	=41	=41	=41
*M2/2	*M2/2	*M2/2	*M2/2	*M2/2	*M2/2	*M2/2	*M2/2	*M2/2
1GG	2E	2G	[1c	1c	1r	1r	1r	1r
.	2D	4F	.	.	.	.	.	.
.	.	4G	.	.	.	.	.	.
=42	=42	=42	=42	=42	=42	=42	=42	=42
*M4/2	*M4/2	*M4/2	*M4/2	*M4/2	*M4/2	*M4/2	*M4/2	*M4/2
2FF	2C	2A	1c_	0r	1a	4c	4.ff	4.ff
.	.	.	.	.	.	8dL	.	.
.	.	.	.	.	.	8eJ	8ee	8ee
2r	2r	2r	.	.	.	8fL	2ff	2ff
.	.	.	.	.	.	8g	.	.
.	.	.	.	.	.	8a	.	.
.	.	.	.	.	.	8bJ	.	.
1r	1r	1r	1c_	.	4a	4cc	4ee	4ee
.	.	.	.	.	4f	4a	8eeL	8eeL
.	.	.	.	.	.	.	8ffJ	8ffJ
.	.	.	.	.	4g	4b	4dd	4dd
.	.	.	.	.	4e	4g	8ccL	8ccL
.	.	.	.	.	.	.	8bJ	8bJ
=43	=43	=43	=43	=43	=43	=43	=43	=43
!!pagebreak:original
0r	0r	0r	0c_	0r	2.f	[2a	4.cc	4.cc
.	.	.	.	.	.	.	8dd	8dd
.	.	.	.	.	.	8aL]	4ee	4ee
.	.	.	.	.	.	8gJ	.	.
.	.	.	.	.	4a	4f	4ff	4ff
.	.	.	.	.	2g	4g	4.ee	4.ee
.	.	.	.	.	.	8fL	.	.
.	.	.	.	.	.	8eJ	8cc	8cc
.	.	.	.	.	8aL	8fL	4dd	4dd
.	.	.	.	.	8gJ	8eJ	.	.
.	.	.	.	.	4f	4d	4cc	4cc
=44	=44	=44	=44	=44	=44	=44	=44	=44
*M2/2	*M2/2	*M2/2	*M2/2	*M2/2	*M2/2	*M2/2	*M2/2	*M2/2
1r	1r	1r	1c_	1r	4e	4c	2.cc	2.cc
.	.	.	.	.	4c	4e	.	.
.	.	.	.	.	4f	4a	.	.
.	.	.	.	.	4e	4g	8cc	8cc
.	.	.	.	.	.	.	8cc	8cc
=45	=45	=45	=45	=45	=45	=45	=45	=45
*M4/2	*M4/2	*M4/2	*M4/2	*M4/2	*M4/2	*M4/2	*M4/2	*M4/2
0r	0r	0r	0c_	0r	1a	2cc	4.ff	4.ff
.	.	.	.	.	.	.	8ee	8ee
.	.	.	.	.	.	4b	2ff	2ff
.	.	.	.	.	.	4a	.	.
.	.	.	.	.	4g	4cc	4ee	4ee
.	.	.	.	.	4g	4g	8eeL	8eeL
.	.	.	.	.	.	.	8ffJ	8ffJ
.	.	.	.	.	4f	8aL	4dd	4dd
.	.	.	.	.	.	8gJ	.	.
.	.	.	.	.	4f	8aL	8ccL	8ccL
.	.	.	.	.	.	8bJ	8bJ	8bJ
=46	=46	=46	=46	=46	=46	=46	=46	=46
!!pagebreak:original
0r	0r	0r	0c_	0r	2.e	2cc	4.cc	4.cc
.	.	.	.	.	.	.	8dd	8dd
.	.	.	.	.	.	4b	4ee	4ee
.	.	.	.	.	4f	4a	4ff	4ff
.	.	.	.	.	2g	4g	4.ee	4.ee
.	.	.	.	.	.	8fL	.	.
.	.	.	.	.	.	8eJ	8cc	8cc
.	.	.	.	.	2f	8fL	4dd	4dd
.	.	.	.	.	.	8eJ	.	.
.	.	.	.	.	.	4d	4cc	4cc
=47	=47	=47	=47	=47	=47	=47	=47	=47
4r	2r	2r	2c]	0r	1e	[0cc	[0cc	[0cc
4C	.	.	.	.	.	.	.	.
4BB	2E	2G	2c	.	.	.	.	.
4AA	.	.	.	.	.	.	.	.
4GG	2F	2G	2c	.	1d	.	.	.
8FFL	.	.	.	.	.	.	.	.
8EEJ	.	.	.	.	.	.	.	.
8FFL	2F	2A	2c	.	.	.	.	.
8EEJ	.	.	.	.	.	.	.	.
4DD	.	.	.	.	.	.	.	.
=48	=48	=48	=48	=48	=48	=48	=48	=48
0CC	0E	0G	0c	0r	0e	0cc]	0cc]	0cc]
==	==	==	==	==	==	==	==	==
*-	*-	*-	*-	*-	*-	*-	*-	*-
